symbols/web/keyboard/materialsymbolsoutlined/keyboard_wght700gradN25fill1_40px.svg

<svg xmlns="http://www.w3.org/2000/svg" height="40" width="40"><path d="M6.042 33.125q-1.75 0-2.98-1.25-1.229-1.25-1.229-3V10.958q0-1.75 1.229-3 1.23-1.25 2.98-1.25h27.916q1.792 0 3.021 1.25 1.229 1.25 1.229 3v17.917q0 1.75-1.229 3t-3.021 1.25Zm12.666-17h2.625v-2.667h-2.625Zm0 5.125h2.625v-2.625h-2.625Zm-5.083-5.125h2.625v-2.667h-2.625Zm0 5.125h2.625v-2.625h-2.625Zm-5.125 0h2.625v-2.625H8.5Zm0-5.125h2.625v-2.667H8.5Zm4.292 10.25h14.416V23.75H12.792Zm11-5.125h2.666v-2.625h-2.666Zm0-5.125h2.666v-2.667h-2.666Zm5.083 5.125h2.667v-2.625h-2.667Zm0-5.125h2.667v-2.667h-2.667Z"/></svg>

<svg xmlns="http://www.w3.org/2000/svg" height="40" width="40"><path d="M6.042 33.125Q4.292 33.125 3.062 31.875Q1.833 30.625 1.833 28.875V10.958Q1.833 9.208 3.062 7.958Q4.292 6.708 6.042 6.708H33.958Q35.75 6.708 36.979 7.958Q38.208 9.208 38.208 10.958V28.875Q38.208 30.625 36.979 31.875Q35.75 33.125 33.958 33.125ZM18.708 16.125H21.333V13.458H18.708ZM18.708 21.25H21.333V18.625H18.708ZM13.625 16.125H16.25V13.458H13.625ZM13.625 21.25H16.25V18.625H13.625ZM8.5 21.25H11.125V18.625H8.5ZM8.5 16.125H11.125V13.458H8.5ZM12.792 26.375H27.208V23.75H12.792ZM23.792 21.25H26.458V18.625H23.792ZM23.792 16.125H26.458V13.458H23.792ZM28.875 21.25H31.542V18.625H28.875ZM28.875 16.125H31.542V13.458H28.875Z"/></svg>
